X:15
T:Courento (1)
O:Valle Varaite
Z:Transcrit et/ou corrig par Michel BELLON - 2007-01-30
Z:Pour toute observation mailto:galouvielle@free.fr
M:6/8
L:1/8
K:D
P:"miro"
d2f | f>aa aba | aff f2a | aba gfe | e2d d2f | faa aba | aff faa | aba gfe | d3 d3 |
P:"bal"
gfe efg | a2f d2f | agf efg | a2f d2f | [P:"vir"]faa aba | aff faa | aba gfe | d3 d3 |
P:"bal"
gfe efg | a2f d2f | agf efg | a2f d2f | [P:"vir"]faa aba | f2d d2d | e2e gfe | d3 |]
%%footer $D   Galouvielle-MBe 2007 \n-- (Valle Varaita - Italie (occitane))
